X:1
T:Only Waiting
T:Only Waiting
T:James Henry Fillmore, Sr.
T:W. G. Irvin, 1874
T:Public Domain Courtesy of the Cyber Hymnal™
T:Public Domain Courtesy of the Cyber Hymnal™
C:James Henry Fillmore, Sr.
Z:Public Domain
Z:Courtesy of the Cyber Hymnal™
%%score ( 1 2 ) ( 3 4 )
L:1/8
Q:1/4=105
M:4/4
K:Ab
V:1 treble 
V:2 treble 
V:3 bass 
V:4 bass 
V:1
 [CE]2 [CE]2 [=B,=D][CE][EA][E_B] | ([Ec]>[DB]) [CA]6 | [DA]2 [DA]2 [FB][FA][EG][DF] | [CE]6 z2 | %4
w: 1.~I am wait- ing for the|morn- * ing|Of the bless- èd day to|dawn,|
w: 2.~I am wait- ing, worn and|wea- * ry|With the bat- tle and the|strife,|
w: 3.~Wait- ing, hop- ing, trust- ing|ev- * er,|For a home of bound- less|love;|
w: 4.~Hop- ing soon to meet the|loved * ones|Where the “ma- ny man- sions”|be;|
 [CE]2 [CE]2 [=B,=D][CE][EA][E_B] | [Ec]2 [Ae]4 [Fd][FB] | [EA]2 (GA) [Ac]3 [EB] | [EA]6 || %8
w: When the sor- row and the|sad- ness Of this|change- ful * life are|gone.|
w: Hop- ing when the war- fare’s|o- ver To re-|ceive a * crown of|life.|
w: Like a pil- grim, look- ing|for- ward To the|land of * bliss a-|bove.|
w: List- ’ning for the hap- py|wel- come Of my|Sav- ior * call- ing|me.|
"^Refrain" [Ec][Ec] | B4- [EB][Ac][Gd][Bd] | [Bd] [Ac]4 z | [Ec][=EB] | A4- [FA][FA][=EG][FA] | %13
w: |||||
w: I am|wait- ing, on- ly wait-|* ing,|Till this|wea- ry life is o’er;|
w: |||||
w: |||||
 [GB]6 [Ac][Ad] | e4- [Ae][EA][EB][_Gc] | [Fd] d4 [Fc][FB] x | [EA][CE][=B,=D][CE] [Ec]3 [_D_B] | %17
w: ||||
w: * On- ly|wait- ing for my wel-|* * come, From|my Sav- ior on the o-|
w: ||||
w: ||||
 [CA]6 z2 |] %18
w: |
w: ther|
w: |
w: |
V:2
 x8 | x8 | x8 | x8 | x8 | x8 | x2 E2 x4 | x6 || x2 | E E E E x4 | x6 | x2 | F F F F x4 | x8 | %14
 A A _G G x4 | x (FFF F)F x2 | x8 | x8 |] %18
V:3
 [A,,A,]2 [A,,A,]2 [A,,A,][A,,A,][C,A,][E,G,] | A,2 [A,,E,]6 | %2
w: ~ ~ ~ ~ ~ ~|~ ~|
 [D,F,]2 [D,F,]2 [D,A,][D,A,][D,A,][D,A,] | [A,,A,]6 z2 | %4
w: ~ ~ ~ ~ ~ ~|~|
 [A,,A,]2 [A,,A,]2 [A,,A,][A,,A,][C,A,][E,G,] | A,2 [A,C]4 [D,B,][D,D] | %6
w: ~ ~ ~ ~ ~ ~|~ ~ ~ ~|
 [E,C]2 (B,C) [E,E]3 [E,D] | [A,,C]6 || A,A, | [E,G,][E,G,][E,G,][E,G,] [E,G,][E,A,][E,B,][E,E] | %10
w: ~ ~ * ~ ~|~|I am|wait- ing, wait- ing, wait- ing, onl- ly|
 [A,E][A,E][A,E][A,E] [A,E][A,E] | [A,E][G,D] | [F,C][F,C][F,C][F,C] [F,C][F,C][F,C][F,C] | %13
w: wait- ing, on- ly wait- ing,|Till this|wea- ry, wea- ry, wea- ry— Till this|
 [E,E][E,E][E,D][E,C] [E,B,]2 A,[A,B,] | [A,C][A,C][E,D][E,D] [A,,C][A,,C][A,,B,][A,,A,] | %15
w: wea- ry life is o’er; On- ly|wait- ing, wait- ing, wait- ing, for my|
 [D,A,][D,A,][D,A,][D,A,] [D,A,][D,A,][D,A,][D,B,] | [E,C][E,C][E,A,][E,A,] [E,A,]3 [E,G,] | %17
w: wel- come, for my wel- come * *||
 [A,,E,A,]6 z2 |] %18
w: |
V:4
 x8 | A,2 x6 | x8 | x8 | x8 | A,2 x6 | x2 E,2 x4 | x6 || A,A, | x8 | x6 | x2 | x8 | x6 A, x | x8 | %15
 x8 | x8 | x8 |] %18

